X: 33202
T: Protestant Hag, The
R: jig
M: 6/8
K: Adorian
G|:Agf edc|BAG Bcd|A2e efg|dBG A2G|
Agf edc|BAG Bcd|~c3 efg|dBG A2G:|
|:Aaa aga|bga ged|eaa aga|bga g2d|
eaa aga|bga ged|cde gfe|dBG A2G:|

